imprint/img/imprint-dusky.svg

<?xml version="1.0" encoding="UTF-8" standalone="no"?>
<!-- Created with Inkscape (http://www.inkscape.org/) -->

<svg
   xmlns:dc="http://purl.org/dc/elements/1.1/"
   xmlns:cc="http://creativecommons.org/ns#"
   xmlns:rdf="http://www.w3.org/1999/02/22-rdf-syntax-ns#"
   xmlns:svg="http://www.w3.org/2000/svg"
   xmlns="http://www.w3.org/2000/svg"
   version="1.1"
   width="16"
   height="16"
   id="svg2">
  <title
     id="title2997">imprint</title>
  <metadata
     id="metadata20">
    <rdf:RDF>
      <cc:Work
         rdf:about="">
        <dc:format>image/svg+xml</dc:format>
        <dc:type
           rdf:resource="http://purl.org/dc/dcmitype/StillImage" />
        <dc:title>imprint</dc:title>
        <dc:creator>
          <cc:Agent>
            <dc:title>Christian Reiner</dc:title>
          </cc:Agent>
        </dc:creator>
        <dc:rights>
          <cc:Agent>
            <dc:title>Copyright 2012, Christian Reiner, Hamburg, Germany</dc:title>
          </cc:Agent>
        </dc:rights>
        <dc:publisher>
          <cc:Agent>
            <dc:title>Christian Reiner</dc:title>
          </cc:Agent>
        </dc:publisher>
        <dc:identifier>imprint</dc:identifier>
        <dc:subject>
          <rdf:Bag>
            <rdf:li>imprint legal app icon</rdf:li>
          </rdf:Bag>
        </dc:subject>
        <cc:license
           rdf:resource="http://creativecommons.org/licenses/by-nc-nd/3.0/" />
      </cc:Work>
      <cc:License
         rdf:about="http://creativecommons.org/licenses/by-nc-nd/3.0/">
        <cc:permits
           rdf:resource="http://creativecommons.org/ns#Reproduction" />
        <cc:permits
           rdf:resource="http://creativecommons.org/ns#Distribution" />
        <cc:requires
           rdf:resource="http://creativecommons.org/ns#Notice" />
        <cc:requires
           rdf:resource="http://creativecommons.org/ns#Attribution" />
        <cc:prohibits
           rdf:resource="http://creativecommons.org/ns#CommercialUse" />
      </cc:License>
    </rdf:RDF>
  </metadata>
  <defs
     id="defs4" />
  <g
     transform="matrix(0.61573223,0,0,0.47574252,0.38086491,-0.4918913)"
     id="text2986-8-4"
     style="font-size:21.92821312px;opacity:0.6;fill:#ffffff">
    <path
       d="m 6.4236328,29.693222 3.3066446,-0.474987 c 0.3410106,1.58329 0.8829826,2.691593 1.6259196,3.324913 0.742921,0.645491 1.753791,0.968239 3.032613,0.968244 1.242263,-5e-6 2.210506,-0.316663 2.904732,-0.949975 0.706377,-0.63332 1.059573,-1.376249 1.059588,-2.228788 C 18.353115,29.71149 18.13389,29.13907 17.695454,28.615366 16.940333,27.701929 14.869876,26.209982 11.484078,24.139521 9.6815548,23.031222 8.421012,22.166502 7.7024456,21.545358 6.9960506,20.912049 6.4175406,20.16912 5.9669139,19.31657 5.5162829,18.464038 5.2909685,17.574959 5.29097,16.649332 5.2909685,15.480144 5.6563432,14.420558 6.3870953,13.470568 7.1178422,12.520609 8.1226227,11.856845 9.4014398,11.479274 8.536714,10.651108 7.9277561,9.8899109 7.5745643,9.1956797 7.221365,8.4893078 7.0447672,7.7402896 7.0447704,6.9486229 7.0447672,5.3897121 7.6537251,4.0378257 8.8716459,2.8929593 10.089557,1.748144 11.703295,1.1757236 13.712866,1.1756964 c 2.277492,2.72e-5 4.055649,0.5419997 5.334476,1.6259191 1.278797,1.0839707 2.046084,2.655082 2.301863,4.7133388 L 17.932948,7.8620606 C 17.677172,6.3762239 17.226543,5.3409955 16.58106,4.7563723 15.947731,4.1717964 15.089101,3.8794966 14.005166,3.8794721 c -1.120493,2.45e-5 -2.02784,0.3045034 -2.722044,0.9134377 -0.682041,0.5968023 -1.023057,1.2605664 -1.023051,1.9912943 -6e-6,0.6333378 0.219219,1.2179374 0.657675,1.7538004 0.682026,0.8282026 2.545437,2.1679095 5.590239,4.0191265 1.912115,1.169215 3.203106,2.027845 3.872976,2.575894 0.864704,0.730763 1.49802,1.48587 1.899951,2.265326 0.414073,0.779477 0.621118,1.625928 0.621138,2.539356 -2e-5,1.376254 -0.444559,2.551542 -1.33362,3.52587 -0.511542,0.560246 -1.449337,1.126577 -2.813388,1.698994 0.974318,0.742932 1.698978,1.540667 2.173982,2.393207 0.487149,0.852542 0.730732,1.765979 0.73075,2.740313 -1.8e-5,1.071764 -0.304497,2.082634 -0.913438,3.032614 -0.608974,0.962148 -1.485874,1.692898 -2.6307,2.19225 -1.144855,0.511518 -2.38104,0.76728 -3.708557,0.767288 -2.32623,-8e-6 -4.171372,-0.584608 -5.5354331,-1.753801 C 7.5075752,33.377416 6.6915716,31.763678 6.4236328,29.693222 M 17.110854,23.956833 c 0.901245,-0.462803 1.571098,-0.998686 2.009563,-1.60765 0.450614,-0.621131 0.675928,-1.223999 0.675944,-1.808607 -1.6e-5,-0.694204 -0.316674,-1.424953 -0.949975,-2.19225 -0.64551,-0.767277 -2.015666,-1.796416 -4.11047,-3.08742 -1.668555,-1.023036 -2.910829,-1.863398 -3.726826,-2.521088 -0.986519,0.560257 -1.6929099,1.120498 -2.1191753,1.680726 -0.4140965,0.560255 -0.6211422,1.181392 -0.6211377,1.863413 -4.5e-6,0.767299 0.2801162,1.498048 0.8403627,2.19225 0.560236,0.694222 1.8207783,1.619838 3.7816323,2.776851 1.631998,0.96216 3.038691,1.863418 4.220082,2.703775"
       id="path2996"
       style="font-size:37.41440964px;font-family:Arial" />
  </g>
  <g
     transform="matrix(0.56782435,0,0,0.45567757,-0.01883254,-9.1249753e-6)"
     id="text2986-8-41"
     style="font-size:21.92821312px;opacity:0.7;fill:#000000">
    <path
       d="m 6.4491529,28.517546 3.3066446,-0.474988 c 0.3410105,1.58329 0.8829825,2.691594 1.6259195,3.324914 0.742921,0.645491 1.753791,0.968239 3.032613,0.968244 1.242263,-5e-6 2.210506,-0.316663 2.904732,-0.949975 0.706378,-0.633321 1.059573,-1.376249 1.059588,-2.228788 -1.5e-5,-0.621139 -0.21924,-1.19356 -0.657675,-1.717263 C 16.965853,26.526253 14.895396,25.034306 11.509598,22.963845 9.7070749,21.855546 8.4465321,20.990825 7.7279657,20.369682 7.0215707,19.736372 6.4430607,18.993444 5.992434,18.140893 5.541803,17.288362 5.3164886,16.399283 5.3164901,15.473655 5.3164886,14.304468 5.6818633,13.244881 6.4126154,12.294892 7.1433622,11.344933 8.1481427,10.681169 9.4269599,10.303598 8.5622341,9.4754319 7.9532762,8.7142345 7.6000844,8.0200033 7.2468851,7.3136314 7.0702873,6.5646132 7.0702905,5.7729465 7.0702873,4.2140358 7.6792452,2.8621493 8.897166,1.717283 10.115077,0.57246767 11.728815,4.7264011e-5 13.738386,2.0025298e-5 16.015879,4.7264011e-5 17.794036,0.54201978 19.072862,1.6259392 c 1.278797,1.0839706 2.046084,2.655082 2.301863,4.7133387 L 17.958468,6.6863842 C 17.702692,5.2005476 17.252063,4.1653192 16.60658,3.5806959 15.973252,2.99612 15.114621,2.7038203 14.030686,2.7037957 c -1.120493,2.46e-5 -2.02784,0.3045035 -2.722044,0.9134378 -0.682041,0.5968023 -1.023057,1.2605664 -1.023051,1.9912942 -6e-6,0.6333378 0.219219,1.2179374 0.657676,1.7538005 0.682025,0.8282026 2.545436,2.1679099 5.590238,4.0191258 1.912116,1.169215 3.203106,2.027846 3.872976,2.575895 0.864704,0.730762 1.49802,1.48587 1.899951,2.265325 0.414073,0.779477 0.621119,1.625929 0.621138,2.539357 -1.9e-5,1.376253 -0.444559,2.551542 -1.333619,3.52587 -0.511543,0.560246 -1.449338,1.126577 -2.813389,1.698994 0.974318,0.742932 1.698978,1.540667 2.173982,2.393207 0.487149,0.852542 0.730732,1.765979 0.73075,2.740313 -1.8e-5,1.071764 -0.304496,2.082634 -0.913437,3.032613 -0.608975,0.962149 -1.485875,1.692898 -2.630701,2.192251 -1.144855,0.511517 -2.38104,0.76728 -3.708557,0.767288 -2.32623,-8e-6 -4.171372,-0.584608 -5.535433,-1.753801 C 7.5330953,32.20174 6.7170917,30.588002 6.4491529,28.517546 M 17.136374,22.781157 c 0.901245,-0.462803 1.571098,-0.998686 2.009563,-1.60765 0.450614,-0.621131 0.675928,-1.224 0.675944,-1.808607 -1.6e-5,-0.694204 -0.316674,-1.424954 -0.949975,-2.192251 -0.64551,-0.767276 -2.015666,-1.796415 -4.11047,-3.087419 -1.668555,-1.023036 -2.910829,-1.863398 -3.726826,-2.521088 -0.986519,0.560257 -1.6929098,1.120498 -2.1191752,1.680725 -0.4140965,0.560255 -0.6211422,1.181392 -0.6211377,1.863413 -4.5e-6,0.767299 0.2801162,1.498049 0.8403627,2.192251 0.560236,0.694222 1.8207792,1.619838 3.7816322,2.77685 1.631998,0.962161 3.038691,1.863419 4.220082,2.703776"
       id="path2993"
       style="font-size:37.41440964px;font-family:Arial" />
  </g>
</svg>

<?xml version="1.0" encoding="UTF-8" standalone="no"?>
<svg xmlns:rdf="http://www.w3.org/1999/02/22-rdf-syntax-ns#" xmlns="http://www.w3.org/2000/svg" height="16" width="16" version="1.1" xmlns:cc="http://creativecommons.org/ns#" xmlns:dc="http://purl.org/dc/elements/1.1/">
 <title>imprint</title>
 <g opacity=".6" fill="#fff" transform="matrix(.61573 0 0 .47574 .38086 -.49189)">
  <path d="m6.4236 29.693 3.3066-0.47499c0.34101 1.5833 0.88298 2.6916 1.6259 3.3249 0.74292 0.64549 1.7538 0.96824 3.0326 0.96824 1.2423-0.000005 2.2105-0.31666 2.9047-0.94998 0.70638-0.63332 1.0596-1.3762 1.0596-2.2288 0-0.621-0.219-1.193-0.658-1.717-0.755-0.913-2.825-2.405-6.211-4.475-1.8024-1.109-3.063-1.973-3.7816-2.595-0.7063-0.633-1.2849-1.376-1.7355-2.228-0.4506-0.853-0.6759-1.742-0.6759-2.668 0-1.169 0.3653-2.228 1.0961-3.178 0.7307-0.95 1.7355-1.614 3.0143-1.992-0.8647-0.828-1.4736-1.5891-1.8268-2.2833-0.3532-0.7064-0.5298-1.4554-0.5298-2.2471 0-1.5589 0.6089-2.9108 1.8268-4.0556 1.2184-1.1449 2.8314-1.7173 4.8414-1.7173 2.2775 0.0000272 4.0556 0.542 5.3345 1.6259 1.2788 1.084 2.0461 2.6551 2.3019 4.7133l-3.416 0.3472c-0.256-1.4859-0.706-2.5211-1.352-3.1057-0.633-0.5846-1.492-0.8769-2.576-0.8769-1.1205 0.0000245-2.0278 0.3045-2.722 0.91344-0.68204 0.5968-1.0231 1.2606-1.0231 1.9913-0.000006 0.63334 0.21922 1.2179 0.65768 1.7538 0.68203 0.8282 2.5454 2.1679 5.5902 4.0191 1.9121 1.1692 3.2031 2.0278 3.873 2.5759 0.8647 0.73076 1.498 1.4859 1.9 2.2653 0.41407 0.77948 0.62112 1.6259 0.62114 2.5394-0.00002 1.3763-0.44456 2.5515-1.3336 3.5259-0.51154 0.56025-1.4493 1.1266-2.8134 1.699 0.97432 0.74293 1.699 1.5407 2.174 2.3932 0.48715 0.85254 0.73073 1.766 0.73075 2.7403-0.000018 1.0718-0.3045 2.0826-0.91344 3.0326-0.60897 0.96215-1.4859 1.6929-2.6307 2.1922-1.1449 0.51152-2.381 0.76728-3.7086 0.76729-2.3262-0.000008-4.1714-0.58461-5.5354-1.7538-1.3639-1.157-2.1799-2.77-2.4479-4.841m10.687-5.736c0.90124-0.4628 1.5711-0.99869 2.0096-1.6076 0.45061-0.62113 0.67593-1.224 0.67594-1.8086-0.000016-0.6942-0.31667-1.425-0.94998-2.1922-0.64551-0.76728-2.0157-1.7964-4.1105-3.0874-1.6686-1.023-2.9108-1.8634-3.7268-2.5211-0.98652 0.56026-1.6929 1.1205-2.1192 1.6807-0.4141 0.56026-0.62114 1.1814-0.62114 1.8634-0.0000045 0.7673 0.28012 1.498 0.84036 2.1922 0.56024 0.69422 1.8208 1.6198 3.7816 2.7769 1.632 0.96216 3.0387 1.8634 4.2201 2.7038"/>
 </g>
 <g opacity=".7" transform="matrix(.56782 0 0 .45568 -.018833 -.0000091250)">
  <path d="m6.4492 28.518 3.3066-0.47499c0.34101 1.5833 0.88298 2.6916 1.6259 3.3249 0.74292 0.64549 1.7538 0.96824 3.0326 0.96824 1.2423-0.000005 2.2105-0.31666 2.9047-0.94998 0.70638-0.63332 1.0596-1.3762 1.0596-2.2288-0.000015-0.62114-0.21924-1.1936-0.65768-1.7173-0.755-0.914-2.826-2.406-6.211-4.476-1.8029-1.108-3.0635-1.973-3.782-2.594-0.7064-0.634-1.2849-1.377-1.7356-2.229-0.4506-0.853-0.6759-1.742-0.6759-2.667 0-1.17 0.3654-2.229 1.0961-3.179 0.7308-0.95 1.7355-1.614 3.0144-1.991-0.8648-0.8286-1.4737-1.5898-1.8269-2.284-0.3532-0.7064-0.5298-1.4554-0.5298-2.2471 0-1.5589 0.6089-2.9108 1.8269-4.0556 1.2178-1.1448 2.8318-1.7173 4.8408-1.7173 2.278 0.000047264 4.056 0.54202 5.335 1.6259 1.2788 1.084 2.0461 2.6551 2.3019 4.7133l-3.417 0.3472c-0.255-1.4859-0.706-2.5211-1.351-3.1057-0.634-0.5846-1.492-0.8769-2.576-0.8769-1.1205 0.0000246-2.0278 0.3045-2.722 0.91344-0.68204 0.5968-1.0231 1.2606-1.0231 1.9913-0.000006 0.63334 0.21922 1.2179 0.65768 1.7538 0.68202 0.8282 2.5454 2.1679 5.5902 4.0191 1.9121 1.1692 3.2031 2.0278 3.873 2.5759 0.8647 0.73076 1.498 1.4859 1.9 2.2653 0.41407 0.77948 0.62112 1.6259 0.62114 2.5394-0.000019 1.3763-0.44456 2.5515-1.3336 3.5259-0.51154 0.56025-1.4493 1.1266-2.8134 1.699 0.97432 0.74293 1.699 1.5407 2.174 2.3932 0.48715 0.85254 0.73073 1.766 0.73075 2.7403-0.000018 1.0718-0.3045 2.0826-0.91344 3.0326-0.60898 0.96215-1.4859 1.6929-2.6307 2.1923-1.1449 0.51152-2.381 0.76728-3.7086 0.76729-2.3262-0.000008-4.1714-0.58461-5.5354-1.7538-1.3644-1.156-2.1804-2.77-2.4483-4.84m10.687-5.737c0.90124-0.4628 1.5711-0.99869 2.0096-1.6076 0.45061-0.62113 0.67593-1.224 0.67594-1.8086-0.000016-0.6942-0.31667-1.425-0.94998-2.1923-0.64551-0.76728-2.0157-1.7964-4.1105-3.0874-1.6686-1.023-2.9108-1.8634-3.7268-2.5211-0.98652 0.56026-1.6929 1.1205-2.1192 1.6807-0.4141 0.56026-0.62114 1.1814-0.62114 1.8634-0.0000045 0.7673 0.28012 1.498 0.84036 2.1923 0.56024 0.69422 1.8208 1.6198 3.7816 2.7768 1.632 0.96216 3.0387 1.8634 4.2201 2.7038"/>
 </g>
</svg>
